MA1T1/116/aimg/i10.svg

<svg enable-background="new 0 0 48.19 48.19" viewBox="0 0 48.19 48.19" xmlns="http://www.w3.org/2000/svg"><circle cx="23.8" cy="24.45" fill="#ce823d" r="20.53"/><circle cx="23.8" cy="24.45" fill="#d99e41" r="17.92"/><circle cx="23.8" cy="24.45" fill="#eef8ff" r="16.24"/><g fill="#f2da5e"><circle cx="36.93" cy="30.29" r="1.89"/><circle cx="31.42" cy="35.76" r="1.89"/><circle cx="16.57" cy="35.52" r="1.89"/><circle cx="9.73" cy="23.96" r="1.89"/><circle cx="16.35" cy="12.74" r="1.89"/><circle cx="31.42" cy="12.94" r="1.89"/><circle cx="37.75" cy="23.96" r="1.89"/><circle cx="24.12" cy="38.12" r="1.89"/><circle cx="11.61" cy="29.99" r="1.89"/><circle cx="12.58" cy="17.33" r="1.89"/><circle cx="23.8" cy="10.6" r="1.89"/><circle cx="35.86" cy="17.7" r="1.89"/></g><circle cx="23.8" cy="24.45" fill="none" r="17.92" stroke="#252723" stroke-miterlimit="10" stroke-width=".4411"/><circle cx="23.8" cy="24.45" fill="none" r="16.24" stroke="#252723" stroke-miterlimit="10" stroke-width=".4411"/><text fill="#252723" font-family="'ITCAvantGardeStd-Md'" font-size="3.5288" transform="translate(21.7109 11.815)">12</text><text fill="#252723" font-family="'ITCAvantGardeStd-Md'" font-size="3.5288" transform="translate(23.1143 39.5743)">6</text><text fill="#252723" font-family="'ITCAvantGardeStd-Md'" font-size="3.5288" transform="translate(37.0312 25.2296)">3</text><text fill="#252723" font-family="'ITCAvantGardeStd-Md'" font-size="3.5288" transform="translate(30.4941 14.1061)">1</text><text fill="#252723" font-family="'ITCAvantGardeStd-Md'" font-size="3.5288" transform="translate(35.1289 18.8385)">2</text><text fill="#252723" font-family="'ITCAvantGardeStd-Md'" font-size="3.5288" transform="translate(10.6865 18.8385)">10</text><text fill="#252723" font-family="'ITCAvantGardeStd-Md'" font-size="3.5288" transform="translate(14.248 14.1061)">11</text><text fill="#252723" font-family="'ITCAvantGardeStd-Md'" font-size="3.5288" transform="translate(35.8603 31.4254)">4</text><text fill="#252723" font-family="'ITCAvantGardeStd-Md'" font-size="3.5288" transform="translate(30.2988 37.0348)">5</text><text fill="#252723" font-family="'ITCAvantGardeStd-Md'" font-size="3.5288" transform="translate(15.5176 37.0348)">7</text><text fill="#252723" font-family="'ITCAvantGardeStd-Md'" font-size="3.5288" transform="translate(10.6865 31.4254)">8</text><text fill="#252723" font-family="'ITCAvantGardeStd-Md'" font-size="3.5288" transform="translate(8.7353 25.2286)">9</text><path d="m23.8 24.45-4.21 6.71" fill="none" stroke="#4b6ca3" stroke-linecap="round" stroke-linejoin="round" stroke-width=".4411"/><path d="m19.47 28.95c.07 0 .13.06.13.13l.01 2.02 1.83-.87c.07-.03.15 0 .18.06.03.07 0 .15-.06.18l-2.02.96c-.04.02-.09.02-.13-.01-.04-.02-.06-.07-.06-.11l-.01-2.23c0-.03.01-.05.02-.07.03-.04.07-.06.11-.06z" fill="#4b6ca3"/><path d="m23.8 24.26v-11.77" style="fill:none;stroke:#4b6ca3;stroke-width:.6617;stroke-linecap:round;stroke-linejoin:round;stroke-miterlimit:10"/><circle cx="23.8" cy="24.45" fill="#b71c32" r=".68"/><path d="m44.62 20.5c-1.63-10.53-10.47-17.94-21.2-17.16-.04 0-.07.02-.11.03-8.47.37-15.83 4.53-19.19 12.58-3.49 8.38-1.2 18.31 5.6 24.34 6.69 5.93 16.73 6.84 24.6 2.72 8.2-4.29 11.67-13.63 10.3-22.51zm-21.25 24.06c-11.55-.13-20.72-10.42-19.89-21.9.79-10.75 9.32-17.77 19.67-18.33.07.04.16.08.27.08 11.77.13 20.37 7.88 20.42 20.02.05 11.66-8.86 20.25-20.47 20.13z" fill="#222221"/></svg>

<?xml version="1.0" encoding="utf-8"?>
<!-- Generator: Adobe Illustrator 24.2.1, SVG Export Plug-In . SVG Version: 6.00 Build 0)  -->
<svg version="1.1" xmlns="http://www.w3.org/2000/svg" xmlns:xlink="http://www.w3.org/1999/xlink" x="0px" y="0px"
	 viewBox="0 0 48.19 48.19" style="enable-background:new 0 0 48.19 48.19;" xml:space="preserve">
<style type="text/css">
	.st0{fill:#D1E3FF;}
	.st1{fill:#923944;}
	.st2{fill:#B7616C;}
	.st3{fill:#FFEDDE;}
	.st4{fill:#FFFFFF;}
	.st5{fill:#FF9966;}
	.st6{opacity:0.5;fill:#FFFFFF;}
	.st7{fill:#FFC807;}
	.st8{fill:#F0F0F0;}
	.st9{fill:#FFEDA2;}
	.st10{opacity:0.1;}
	.st11{opacity:0.2;fill:#FFFFFF;}
	.st12{fill:#00CBF0;}
	.st13{fill:#222221;}
	.st14{fill:#FFFF66;}
	.st15{fill:#6633FF;}
	.st16{fill:#FF9900;}
	.st17{fill:#FF7876;}
	.st18{fill:#FF78C3;}
	.st19{fill:#DCA756;}
	.st20{fill:#FBF298;}
	.st21{fill:#BF5135;}
	.st22{fill:#CF8531;}
	.st23{fill:#CFB780;}
	.st24{fill:#B71C32;}
	.st25{fill:#252723;}
	.st26{fill:#E8CAD8;}
	.st27{fill:#C25673;}
	.st28{fill:#DCA9C0;}
	.st29{fill:#C87080;}
	.st30{fill:#B3D6F1;}
	.st31{fill:#009FDF;}
	.st32{fill:#D4B76D;}
	.st33{fill:#AC8E64;}
	.st34{fill:#CCA351;}
	.st35{fill:#91714C;}
	.st36{fill:#9BA9CE;}
	.st37{fill:#7B82B1;}
	.st38{fill:#E6C27F;}
	.st39{fill:#D79B5F;}
	.st40{fill:#D1B699;}
	.st41{fill:#E2B64C;}
	.st42{fill:#DAA148;}
	.st43{fill:#99BA48;}
	.st44{fill:#F0E649;}
	.st45{fill:#BB1D6C;}
	.st46{fill:#DBA549;}
	.st47{fill:#F0D33B;}
	.st48{fill-rule:evenodd;clip-rule:evenodd;fill:#252723;}
	.st49{fill-rule:evenodd;clip-rule:evenodd;fill:#B71C32;}
	.st50{fill-rule:evenodd;clip-rule:evenodd;fill:#FFFFFF;}
	.st51{fill-rule:evenodd;clip-rule:evenodd;fill:url(#SVGID_1_);}
	.st52{fill-rule:evenodd;clip-rule:evenodd;fill:url(#SVGID_2_);}
	.st53{fill-rule:evenodd;clip-rule:evenodd;fill:url(#SVGID_3_);}
	.st54{fill-rule:evenodd;clip-rule:evenodd;fill:#C6684D;}
	.st55{opacity:0.5;fill-rule:evenodd;clip-rule:evenodd;fill:#FFFFFF;}
	.st56{opacity:0.3;fill-rule:evenodd;clip-rule:evenodd;fill:#252723;}
	.st57{fill-rule:evenodd;clip-rule:evenodd;fill:#767473;}
	.st58{fill-rule:evenodd;clip-rule:evenodd;fill:url(#SVGID_4_);}
	.st59{fill-rule:evenodd;clip-rule:evenodd;fill:#9B9998;}
	.st60{fill-rule:evenodd;clip-rule:evenodd;fill:#46433F;}
	.st61{fill-rule:evenodd;clip-rule:evenodd;fill:#A1A6A1;}
	.st62{fill-rule:evenodd;clip-rule:evenodd;fill:#D0D3D3;}
	.st63{opacity:0.3;fill-rule:evenodd;clip-rule:evenodd;fill:#FFFFFF;}
	.st64{fill:url(#SVGID_5_);}
	.st65{fill:url(#SVGID_6_);}
	.st66{fill:url(#SVGID_7_);}
	.st67{fill:url(#SVGID_8_);}
	.st68{fill:url(#SVGID_9_);}
	.st69{fill:url(#SVGID_10_);}
	.st70{fill:url(#SVGID_11_);}
	.st71{fill:url(#SVGID_12_);}
	.st72{fill:url(#SVGID_13_);}
	.st73{opacity:0.8;fill:#FFFFFF;}
	.st74{fill:url(#SVGID_14_);}
	.st75{fill:url(#SVGID_15_);}
	.st76{fill:url(#SVGID_16_);}
	.st77{fill:url(#SVGID_17_);}
	.st78{fill:url(#SVGID_18_);}
	.st79{fill:url(#SVGID_19_);}
	.st80{fill:url(#SVGID_20_);}
	.st81{fill:url(#SVGID_21_);}
	.st82{fill:url(#SVGID_22_);}
	.st83{fill:url(#SVGID_23_);}
	.st84{fill:url(#SVGID_24_);}
	.st85{fill:url(#SVGID_25_);}
	.st86{fill:#BFD8C9;}
	.st87{fill-rule:evenodd;clip-rule:evenodd;fill:url(#SVGID_26_);}
	.st88{fill-rule:evenodd;clip-rule:evenodd;fill:url(#SVGID_27_);}
	.st89{fill-rule:evenodd;clip-rule:evenodd;fill:url(#SVGID_28_);}
	.st90{fill-rule:evenodd;clip-rule:evenodd;fill:url(#SVGID_29_);}
	.st91{fill-rule:evenodd;clip-rule:evenodd;fill:url(#SVGID_30_);}
	.st92{fill-rule:evenodd;clip-rule:evenodd;fill:#7C9463;}
	.st93{fill-rule:evenodd;clip-rule:evenodd;fill:url(#SVGID_31_);}
	.st94{fill-rule:evenodd;clip-rule:evenodd;fill:url(#SVGID_32_);}
	.st95{fill-rule:evenodd;clip-rule:evenodd;fill:url(#SVGID_33_);}
	.st96{fill-rule:evenodd;clip-rule:evenodd;fill:url(#SVGID_34_);}
	.st97{fill-rule:evenodd;clip-rule:evenodd;fill:url(#SVGID_35_);}
	.st98{fill-rule:evenodd;clip-rule:evenodd;fill:url(#SVGID_36_);}
	.st99{fill-rule:evenodd;clip-rule:evenodd;fill:#588949;}
	.st100{fill-rule:evenodd;clip-rule:evenodd;fill:url(#SVGID_37_);}
	.st101{fill-rule:evenodd;clip-rule:evenodd;fill:url(#SVGID_38_);}
	.st102{fill-rule:evenodd;clip-rule:evenodd;fill:#445D33;}
	.st103{fill-rule:evenodd;clip-rule:evenodd;fill:#AF8B50;}
	.st104{fill-rule:evenodd;clip-rule:evenodd;fill:#997545;}
	.st105{fill-rule:evenodd;clip-rule:evenodd;fill:#F0D984;}
	.st106{fill-rule:evenodd;clip-rule:evenodd;fill:#BB3C39;}
	.st107{fill-rule:evenodd;clip-rule:evenodd;fill:#921B31;}
	.st108{fill-rule:evenodd;clip-rule:evenodd;fill:#299254;}
	.st109{fill-rule:evenodd;clip-rule:evenodd;fill:#EAC75A;}
	.st110{opacity:0.74;fill-rule:evenodd;clip-rule:evenodd;fill:#FFFFFF;}
	.st111{opacity:0.37;fill-rule:evenodd;clip-rule:evenodd;fill:#9D7433;}
	.st112{fill:#CE823D;}
	.st113{fill:#D99E41;}
	.st114{fill:#EEF8FF;}
	.st115{fill:#F2DA5E;}
	.st116{fill:none;stroke:#252723;stroke-width:0.4411;stroke-miterlimit:10;}
	.st117{font-family:'ITCAvantGardeStd-Md';}
	.st118{font-size:3.5288px;}
	.st119{fill:none;stroke:#4B6CA3;stroke-width:0.4411;stroke-linecap:round;stroke-linejoin:round;}
	.st120{fill:#4B6CA3;}
	.st121{fill:none;stroke:#4B6CA3;stroke-width:0.6617;stroke-linecap:round;stroke-linejoin:round;stroke-miterlimit:10;}
	.st122{fill:#F1D86A;}
	.st123{fill:#E1D7B4;}
	.st124{fill:#F1D86A;stroke:#252723;stroke-width:0.125;stroke-miterlimit:10;}
	.st125{fill:#93AAAF;}
	.st126{fill:#00CC66;}
	.st127{fill:#FF66CC;}
	.st128{fill:#FF6600;}
	.st129{fill:#CC3300;}
	.st130{fill:#9544E2;}
	.st131{opacity:0.3;fill:#FFFFFF;}
</style>
<g id="Capa_2">
</g>
<g id="Capa_1">
	<g>
		<circle class="st112" cx="23.8" cy="24.45" r="20.53"/>
		<circle class="st113" cx="23.8" cy="24.45" r="17.92"/>
		<circle class="st114" cx="23.8" cy="24.45" r="16.24"/>
		<circle class="st115" cx="36.93" cy="30.29" r="1.89"/>
		<circle class="st115" cx="31.42" cy="35.76" r="1.89"/>
		<circle class="st115" cx="16.57" cy="35.52" r="1.89"/>
		<circle class="st115" cx="9.73" cy="23.96" r="1.89"/>
		<circle class="st115" cx="16.35" cy="12.74" r="1.89"/>
		<circle class="st115" cx="31.42" cy="12.94" r="1.89"/>
		<circle class="st115" cx="37.75" cy="23.96" r="1.89"/>
		<circle class="st115" cx="24.12" cy="38.12" r="1.89"/>
		<circle class="st115" cx="11.61" cy="29.99" r="1.89"/>
		<circle class="st115" cx="12.58" cy="17.33" r="1.89"/>
		<circle class="st115" cx="23.8" cy="10.6" r="1.89"/>
		<circle class="st115" cx="35.86" cy="17.7" r="1.89"/>
		<circle class="st116" cx="23.8" cy="24.45" r="17.92"/>
		<circle class="st116" cx="23.8" cy="24.45" r="16.24"/>
		<g>
			<text transform="matrix(1 0 0 1 21.7109 11.815)" class="st25 st117 st118">12</text>
		</g>
		<g>
			<text transform="matrix(1 0 0 1 23.1143 39.5743)" class="st25 st117 st118">6</text>
		</g>
		<g>
			<text transform="matrix(1 0 0 1 37.0312 25.2296)" class="st25 st117 st118">3</text>
		</g>
		<g>
			<text transform="matrix(1 0 0 1 30.4941 14.1061)" class="st25 st117 st118">1</text>
		</g>
		<g>
			<text transform="matrix(1 0 0 1 35.1289 18.8385)" class="st25 st117 st118">2</text>
		</g>
		<g>
			<text transform="matrix(1 0 0 1 10.6865 18.8385)" class="st25 st117 st118">10</text>
		</g>
		<g>
			<text transform="matrix(1 0 0 1 14.248 14.1061)" class="st25 st117 st118">11</text>
		</g>
		<g>
			<text transform="matrix(1 0 0 1 35.8603 31.4254)" class="st25 st117 st118">4</text>
		</g>
		<g>
			<text transform="matrix(1 0 0 1 30.2988 37.0348)" class="st25 st117 st118">5</text>
		</g>
		<g>
			<text transform="matrix(1 0 0 1 15.5176 37.0348)" class="st25 st117 st118">7</text>
		</g>
		<g>
			<text transform="matrix(1 0 0 1 10.6865 31.4254)" class="st25 st117 st118">8</text>
		</g>
		<g>
			<text transform="matrix(1 0 0 1 8.7353 25.2286)" class="st25 st117 st118">9</text>
		</g>
		<g>
			<g>
				<line class="st119" x1="23.8" y1="24.45" x2="19.59" y2="31.16"/>
				<g>
					<path class="st120" d="M19.47,28.95c0.07,0,0.13,0.06,0.13,0.13l0.01,2.02l1.83-0.87c0.07-0.03,0.15,0,0.18,0.06
						c0.03,0.07,0,0.15-0.06,0.18l-2.02,0.96c-0.04,0.02-0.09,0.02-0.13-0.01c-0.04-0.02-0.06-0.07-0.06-0.11l-0.01-2.23
						c0-0.03,0.01-0.05,0.02-0.07C19.39,28.97,19.43,28.95,19.47,28.95z"/>
				</g>
			</g>
		</g>
		<line class="st121" x1="23.8" y1="24.26" x2="23.8" y2="12.49"/>
		<circle class="st24" cx="23.8" cy="24.45" r="0.68"/>
	</g>
	<path class="st13" d="M44.62,20.5C42.99,9.97,34.15,2.56,23.42,3.34c-0.04,0-0.07,0.02-0.11,0.03C14.84,3.74,7.48,7.9,4.12,15.95
		c-3.49,8.38-1.2,18.31,5.6,24.34c6.69,5.93,16.73,6.84,24.6,2.72C42.52,38.72,45.99,29.38,44.62,20.5z M23.37,44.56
		C11.82,44.43,2.65,34.14,3.48,22.66C4.27,11.91,12.8,4.89,23.15,4.33c0.07,0.04,0.16,0.08,0.27,0.08
		c11.77,0.13,20.37,7.88,20.42,20.02C43.89,36.09,34.98,44.68,23.37,44.56z"/>
</g>
</svg>
